Modules/BetterCms.Module.Root/Scss/base_64/icons/editor-paste.svg

<svg xmlns="http://www.w3.org/2000/svg" width="13" height="15" viewBox="0 0 13 15" enable-background="new 0 0 13 15">
 <path fill="#474747" d="m4.53 0c-.29 0-.53.24-.53.53v.47h-.47c-.29 0-.53.24-.53.53v.94c0 .29.24.53.53.53h1 2.94 1c.29 0 .53-.24.53-.53v-.94c0-.29-.24-.53-.53-.53h-.47v-.47c0-.29-.24-.53-.53-.53h-2.94m-2.53 1c-1.09 0-2 .91-2 2v9c0 1.09.91 2 2 2h1v-1h-1c-.55 0-1-.45-1-1v-9c0-.55.45-1 1-1v-.47c0-.18.03-.37.09-.53h-.09m7.91 0c.06.16.09.35.09.53v.47c.55 0 1 .45 1 1v2h1v-2c0-1.09-.91-2-2-2h-.09m-4.91 5c-.55 0-1 .45-1 1v7c0 .55.45 1 1 1h7c.55 0 1-.45 1-1v-7c0-.55-.45-1-1-1h-7m0 1h7v7h-7v-7m1 1v1h5v-1h-5m0 2v1h5v-1h-5m0 2v1h5v-1h-5"/>
</svg>

<svg version="1.1" id="Layer_1" xmlns="http://www.w3.org/2000/svg" xmlns:xlink="http://www.w3.org/1999/xlink" x="0px" y="0px"
	 width="13px" height="15px" viewBox="0 0 13 15" enable-background="new 0 0 13 15" xml:space="preserve">
<path id="path3624" fill="#474747" d="M4.53,0C4.24,0,4,0.24,4,0.53V1H3.53C3.24,1,3,1.24,3,1.53v0.94
	C3,2.76,3.24,3,3.53,3h1h2.94h1C8.76,3,9,2.76,9,2.47V1.53C9,1.24,8.76,1,8.47,1H8V0.53C8,0.24,7.76,0,7.47,0H4.53z M2,1
	C0.91,1,0,1.91,0,3v9c0,1.09,0.91,2,2,2h1v-1H2c-0.55,0-1-0.45-1-1V3c0-0.55,0.45-1,1-1V1.53C2,1.35,2.03,1.16,2.09,1H2z M9.91,1
	C9.97,1.16,10,1.35,10,1.53V2c0.55,0,1,0.45,1,1v2h1V3c0-1.09-0.91-2-2-2H9.91z M5,6C4.45,6,4,6.45,4,7v7c0,0.55,0.45,1,1,1h7
	c0.55,0,1-0.45,1-1V7c0-0.55-0.45-1-1-1H5z M5,7h7v7H5V7z M6,8v1h5V8H6z M6,10v1h5v-1H6z M6,12v1h5v-1H6z"/>
</svg>
